Papirus/22x22/apps/youtube.svg

<?xml version="1.0" encoding="UTF-8" standalone="no"?>
<svg xmlns="http://www.w3.org/2000/svg" height="22" width="22" version="1">
 <path opacity=".2" d="m2 21.5c-0.554 0-1-0.446-1-1v-0.5c0 0.554 0.446 1 1 1h18c0.554 0 1-0.446 1-1v0.5c0 0.554-0.446 1-1 1h-18z"/>
 <rect ry="1" rx="1" transform="matrix(0,-1,-1,0,0,0)" height="20" width="20" y="-21" x="-21" fill="#c2352a"/>
 <path style="opacity:0.1" d="m2 1c-0.554 0-1 0.446-1 1v0.5c0-0.554 0.446-1 1-1h18c0.554 0 1 0.446 1 1v-0.5c0-0.554-0.446-1-1-1h-18z" fill="#fff"/>
 <path d="M 11.148438,6.5 C 9.4585375,6.4995 7.0456656,6.6030531 6.3222656,6.6269531 5.5357656,6.6985531 5.2454063,6.7399812 4.8164062,7.1132812 4.1559063,7.7054813 4,8.8695906 4,10.650391 v 1.693359 c 0,2.031 0.2651113,3.066159 0.7070312,3.443359 0.5049001,0.442 0.8395582,0.473391 1.1738282,0.525391 0.1302,0.02 1.0546437,0.1875 5.1523436,0.1875 2.5547,0 4.749363,-0.124574 4.976563,-0.152344 0.36603,-0.04777 0.885579,-0.113347 1.287109,-0.560547 C 17.883875,15.111109 18,13.985469 18,12.355469 V 10.382813 C 18,9.3284125 17.942875,7.8398437 17.296875,7.2148438 16.806875,6.7938437 16.629188,6.6753469 15.617188,6.6230469 15.331188,6.6103469 12.839437,6.5005 11.148438,6.5 Z M 10,8.5 l 4,3 -4,3 z" style="opacity:0.2"/>
 <path style="fill:#f9f9f9" d="M 11.148438 6 C 9.4585375 5.9995 7.0456656 6.1030531 6.3222656 6.1269531 C 5.5357656 6.1985531 5.2454063 6.2399812 4.8164062 6.6132812 C 4.1559063 7.2054813 4 8.3695906 4 10.150391 L 4 11.84375 C 4 13.87475 4.2651113 14.909909 4.7070312 15.287109 C 5.2119313 15.729109 5.5465894 15.7605 5.8808594 15.8125 C 6.0110594 15.8325 6.9355031 16 11.033203 16 C 13.587903 16 15.782566 15.875426 16.009766 15.847656 C 16.375796 15.799886 16.895345 15.734309 17.296875 15.287109 C 17.883875 14.611109 18 13.485469 18 11.855469 L 18 9.8828125 C 18 8.8284125 17.942875 7.3398437 17.296875 6.7148438 C 16.806875 6.2938437 16.629188 6.1753469 15.617188 6.1230469 C 15.331188 6.1103469 12.839437 6.0005 11.148438 6 z M 10 8 L 14 11 L 10 14 L 10 8 z"/>
</svg>

<?xml version="1.0" encoding="UTF-8" standalone="no"?>
<svg xmlns="http://www.w3.org/2000/svg" height="22" width="22" version="1">
 <rect transform="matrix(0,-1,-1,0,0,0)" rx="1" ry="1" height="20" width="20" y="-21" x="-21" fill="#c2352a"/>
 <path opacity=".2" fill="#fff" d="m2 1c-0.554 0-1 0.446-1 1v0.5c0-0.554 0.446-1 1-1h18c0.554 0 1 0.446 1 1v-0.5c0-0.554-0.446-1-1-1h-18z"/>
 <path opacity=".2" d="m2 21.5c-0.554 0-1-0.446-1-1v-0.5c0 0.554 0.446 1 1 1h18c0.554 0 1-0.446 1-1v0.5c0 0.554-0.446 1-1 1h-18z"/>
 <path opacity=".2" d="m11.094 6.5c-1.6361 0-4.0483 0.1031-4.7717 0.127-0.7865 0.0716-1.0769 0.113-1.5059 0.4863-0.6605 0.5922-0.8164 1.7555-0.8164 3.5367v1.6934c0 2.031 0.26511 3.0662 0.70703 3.4434 0.5049 0.442 0.8396 0.474 1.1739 0.526 0.1302 0.02 1.0544 0.188 5.1521 0.188 2.5547 0 4.7494-0.12457 4.9766-0.15234 0.36603-0.04777 0.88556-0.11335 1.2871-0.56055 0.587-0.677 0.703-1.802 0.703-3.432v-1.9727c0-1.0536-0.057-2.5422-0.703-3.1672-0.49-0.421-0.668-0.5395-1.68-0.5918-0.286-0.0127-2.778-0.123-4.521-0.123h-0.002zm-2.094 2 4 2.5-4 2.5v-5z"/>
 <path fill="#f9f9f9" d="m11.094 6c-1.6361 0-4.0483 0.1031-4.7717 0.127-0.7865 0.0716-1.0769 0.113-1.5059 0.4863-0.6605 0.5922-0.8164 1.7555-0.8164 3.5367v1.6934c0 2.031 0.26511 3.0662 0.70703 3.4434 0.5049 0.442 0.8396 0.474 1.1739 0.526 0.1302 0.02 1.0544 0.188 5.1521 0.188 2.5547 0 4.7494-0.12457 4.9766-0.15234 0.36603-0.04777 0.88556-0.11335 1.2871-0.56055 0.587-0.677 0.703-1.802 0.703-3.432v-1.9722c0-1.0544-0.057-2.543-0.703-3.168-0.49-0.421-0.668-0.5395-1.68-0.5918-0.286-0.0127-2.778-0.123-4.521-0.123h-0.002zm-2.094 2 4 2.5-4 2.5v-5z"/>
</svg>
